!!!SOCIAL_FUNCTION:	songs of ceremonial dances
!!!PDT:	1958
!!!OTL: No_2_Song_of_the_Hesi_Dance_(b).krn
!!!REG: Northern California
!!!LANG: Non-Tone
!!!LING_GROUP: Penutian
**kern
*staff1
=1-
*clefF4
*k[b-e-a-]
*M3/4
8G\L
16G\L
16A-\JJ
8G\L
(16G\L
16F\JJ)
16B-\LL
16G\J
8G\J
=2
*M2/4
(16G\LL
16F\)
16E-\
16C\JJ
8C/L
16C/Jk
16r
=3
*M3/4
8G\L
16.G\L
32F\JJk
8F\L
16E-\L
16F\JJ
8F\L
8F\J
=4
*M2/4
(16G\LL
16F\)
16E-\
16C\JJ
8C/L
16C/Jk
16r
=5
*M3/4
8G\L
16.G\L
32F\JJk
8F\L
8F\J
8G\L
8G\J
=6!|:
*M2/4
(16G\LL
16F\)
16E-\
16C\JJ
8C/L
16C/Jk
16r
=7
*M3/4
8G\L
16.G\L
32F\JJk
8F\L
(16E-\L
16F\JJ)
8F\L
8F\J
=8||
*M2/4
(16G\LL
16F\)
16E-\
16C\JJ
8C/L
16C/Jk
16r
=9
*M3/4
8G\L
16.G\L
32G\JJk
8F\L
(16F\L
16G\JJ)
(16B-\LL
16A-\J)
8G\J
==:|!
*-
